!!!COM:	Pierre de la Rue
**kern	**kern
*part2	*part1
*staff2	*staff1
*clefF4	*clefGv2
*k[]	*k[]
*M2/1	*M2/1
=1-	=1-
1.D	0r
2E	.
=2	=2
2F	1.A
2G	.
[1A	.
.	2B
=3	=3
2A]	2c
4G	2d
4F	.
2G	1e
[2A	.
=4	=4
2A]	2f
4G	1e
4F	.
2E	.
[2A	4d
.	4c
=5	=5
2A]	1B
2G	.
2A	2r
[2F	[2A
=6	=6
2F]	4A]
.	4B
4E	4c
4D	4d
4C	4e
4D	4f
4E	[2e
4F	.
=7	=7
4G	2e]
4F	.
4E	2.d
4D	.
1E	.
.	4c
.	2c
=8	=8
0D	1d
.	2r
.	2d
=9	=9
2r	1f
2D	.
1F	1f
=10	=10
0G	2e
.	2d
.	4e
.	4d
.	4c
.	4B
=11	=11
2F	2A
4E	2.d
4D	.
2.E	.
.	4B
.	2c
4C	.
=12	=12
2D	4B
.	4A
4C	1B
4BB	.
2C	.
2AA	[2A
=13	=13
1BB	2A]
.	2G
2r	2A
[2AA	[2c
=14	=14
4AA]	2c]
4BB	.
4C	4B
4D	4A
4E	2.G
4F	.
[2G	.
.	4A
=15	=15
2G]	4B
.	4c
4F	1d
4E	.
4F	.
4E	.
4D	[2c
4C	.
=16	=16
1D	2c]
.	2B
[1C	1c
=17	=17
1C]	2r
.	2c
2r	2d
2F	2f
=18	=18
2G	2e
1B-X	2.d
.	4c
[2A	4B
.	4A
=19	=19
2A]	1B
2G	.
2A	2A
2F	[2d
=20	=20
2G	2d]
2B	4c
.	4B
2A	4c
.	4d
[2G	4e
.	4f
=21	=21
4G]	2e
4F	.
4E	2.d
4D	.
1E	.
.	4c
.	2c
=22	=22
0D	0d
==	==
*-	*-
